X:1
T:Savior, Again to Your Dear Name We Raise
T:Text: John Ellerton, 1866, alt. Tune: Edward J. Hopkins, 1869
T:10 10 10 10 ELLERS www.hymnary.org//text/savior_again_to_thy_dear_name_we_raise
T:Savior, Again to Your Dear Name We Raise
T:This hymn is in the public domain. You may freely use this score for personal and congregational worship. If you reproduce the score, please credit Hymnary.org as the source. 
T:This hymn is in the public domain. You may freely use this score for personal and congregational worship. If you reproduce the score, please credit Hymnary.org as the source. 
Z:This hymn is in the public domain. You may freely use this score for personal and congregational worship. If you reproduce the score, please credit Hymnary.org as the source.
%%score ( 1 2 ) ( 3 4 )
L:1/8
M:2/2
K:G
V:1 treble nm="SOPRANO ALTO" snm="S. A."
V:2 treble 
V:3 bass nm="TENOR BASS" snm="T. B."
V:4 bass 
V:1
"^G""^1""^2""^3""^4" D4 D2 E2 |"^G/B" D4 G4 |"^D7" G2 F2 G2 A2 |"^G" B8 | G4 G2 A2 |"^Em" G4 B4 | %6
w: Sav- ior, a-|gain to|your dear name we|raise|with one ac-|cord our|
w: Grant us your|peace up-|on our home- ward|way;|with you be-|gan, with|
w: Grant us your|peace, Lord,|through the com- ing|night;|turn all our|dark- ness|
w: Grant us your|peace through-|out our earth- ly|life:|com- fort in|sor- row,|
"^A7" B2 A2 B2 ^c2 |"^D" d8 |"^G/B" d4 G2 G2 |"^Am" c4 c4 |1"^D7" c2 A2 B2 c2 |"^G" B8 | %12
w: part- ing hymn of|praise.|We give you|thanks be-|fore our wor- ship|cease,|
w: you shall end the|day.|Guard now the|lips from|sin, the hearts from|shame,|
w: to your per- fect|light.|Then, while we|sleep, our|hope and strength re-|new,|
w: cour- age in the|strife.|Then, when your|voice shall|make our con- flict|cease,|
"^Em" G4 A2 G2 |"^Am7" G4 E4 |"^D7" D2 D2 E2 D2 |"^G" D8 |] %16
w: and now de-|part- ing,|wait your word of|peace.|
w: that in this|house have|called up- on your|name.|
w: for dark and|light are|both a- like to|you.|
w: call us, O|Lord, to|your e- ter- nal|peace.|
V:2
 B,4 C2 C2 | D4 D4 | C2 C2 C2 C2 | B,8 | D4 D2 D2 | E4 G4 | G2 G2 G2 G2 | F8 | G4 G2 G2 | E4 E4 |1 %10
 D2 D2 D2 D2 | D8 | B,4 B,2 B,2 | A,4 A,4 | A,2 A,2 C2 C2 | B,8 |] %16
V:3
 G,4 F,2 F,2 | G,4 G,4 | A,2 A,2 E,2 F,2 | G,8 | B,4 B,2 B,2 | B,4 (E2 D2) | ^C2 C2 B,2 A,2 | A,8 | %8
 D4 D2 D2 | C4 A,4 |1 A,2 A,2 G,2 F,2 | G,8 | G,4 G,2 G,2 | E,4 G,4 | F,2 F,2 G,2 F,2 | G,8 |] %16
V:4
 G,,4 A,,2 A,,2 | B,,4 B,,4 | D,2 D,2 D,2 D,2 | G,,8 | G,4 G,2 F,2 | E,4 E,4 | %6
 A,,2 A,,2 A,,2 A,,2 | D,8 | B,,4 B,2 B,2 | A,4 G,4 |1 F,2 F,2 E,2 D,2 | G,,8 | E,4 E,2 E,2 | %13
 C,4 C,4 | D,2 D,2 D,2 D,2 | G,,8 |] %16

